dist/icons/activities/3.svg

<svg width="40" height="40" viewBox="0 0 40 40" fill="none" xmlns="http://www.w3.org/2000/svg">
<g clip-path="url(#clip0)">
<path d="M39.4727 0.195266C39.212 -0.0654141 38.7906 -0.0654141 38.5299 0.195266L36.0578 2.66672H20.5357L1.0214 22.3417C0.57671 22.7857 0.332031 23.3771 0.332031 24.0051C0.332031 24.6332 0.57671 25.2245 1.0214 25.6685L14.6661 39.3132C15.1241 39.7712 15.7248 39.9999 16.3268 39.9999C16.9309 39.9999 17.5362 39.7692 17.9989 39.3066L37.0005 19.7916V3.60944L39.472 1.13798C39.7327 0.8773 39.7327 0.455945 39.4727 0.195266ZM35.6678 19.2502L17.0502 38.3705C16.6535 38.7679 16.0068 38.7679 15.6088 38.3705L1.96411 24.7258C1.77144 24.5331 1.66543 24.2771 1.66543 24.0051C1.66543 23.7331 1.77144 23.4771 1.96611 23.2824L21.0911 4.00012H34.7251L31.5029 7.22228C30.9756 6.87293 30.3455 6.66692 29.6675 6.66692C27.8294 6.66692 26.334 8.16233 26.334 10.0004C26.334 11.8385 27.8294 13.3339 29.6675 13.3339C31.5056 13.3339 33.001 11.8385 33.001 10.0004C33.001 9.32239 32.795 8.69236 32.4456 8.165L35.6678 4.94284V19.2502ZM31.6676 10.0004C31.6676 11.1031 30.7702 12.0005 29.6675 12.0005C28.5648 12.0005 27.6674 11.1031 27.6674 10.0004C27.6674 8.8977 28.5648 8.00032 29.6675 8.00032C29.9755 8.00032 30.2635 8.07633 30.5242 8.201L29.1961 9.52907C28.9355 9.78974 28.9355 10.2111 29.1961 10.4718C29.3261 10.6018 29.4968 10.6671 29.6675 10.6671C29.8382 10.6671 30.0088 10.6018 30.1389 10.4718L31.4669 9.14371C31.5916 9.40439 31.6676 9.69241 31.6676 10.0004Z" fill="#DEC377"/>
<path d="M26.9426 14.0881C27.2033 13.8274 27.2033 13.4061 26.9426 13.1454C26.6819 12.8847 26.2606 12.8847 25.9999 13.1454L25.5025 13.6428C24.3111 12.6894 22.799 12.2207 21.2556 12.3514C20.1802 12.4414 19.2069 12.9607 18.5148 13.8134C17.8028 14.6915 17.4741 15.8395 17.6148 16.9629L18.1221 21.0231L12.1572 26.9881C10.7904 25.1613 10.9318 22.5565 12.5905 20.8971C12.8512 20.6364 12.8512 20.2151 12.5905 19.9544C12.3299 19.6937 11.9085 19.6937 11.6478 19.9544C9.46771 22.1345 9.32104 25.5873 11.2045 27.9408L10.4431 28.7022C10.1824 28.9628 10.1824 29.3842 10.4431 29.6449C10.5731 29.7749 10.7438 29.8402 10.9145 29.8402C11.0851 29.8402 11.2558 29.7749 11.3858 29.6449L12.1478 28.8828C13.2099 29.7316 14.5253 30.1976 15.8887 30.1976C16.056 30.1976 16.2241 30.1902 16.3927 30.1762C17.4681 30.0869 18.4415 29.5682 19.1335 28.7148C19.8462 27.8368 20.1749 26.6881 20.0342 25.5647L19.5269 21.5045L25.4918 15.5395C26.8579 17.3663 26.7172 19.9717 25.0578 21.6311C24.7971 21.8918 24.7971 22.3132 25.0578 22.5739C25.3185 22.8345 25.7399 22.8345 26.0005 22.5739C28.1806 20.3931 28.3267 16.9402 26.4439 14.5868L26.9426 14.0881ZM18.7095 25.7307C18.8055 26.4954 18.5822 27.2768 18.0968 27.8755C17.6355 28.4442 16.9908 28.7895 16.2807 28.8488C15.1353 28.9388 14.0086 28.6095 13.0999 27.9315L18.3308 22.6999L18.7095 25.7307ZM18.9369 16.7976C18.8408 16.0335 19.0642 15.2515 19.5489 14.6535C20.0102 14.0848 20.6556 13.7394 21.3656 13.6794C22.511 13.5854 23.6384 13.9181 24.5471 14.5968L19.3155 19.8284L18.9369 16.7976Z" fill="#DEC377"/>
</g>
<defs>
<clipPath id="clip0">
<rect width="40" height="40" fill="white"/>
</clipPath>
</defs>
</svg>

<svg width="40" height="40" fill="none" xmlns="http://www.w3.org/2000/svg"><g clip-path="url(#clip0)" fill="#DEC377"><path d="M39.473.195a.666.666 0 00-.943 0l-2.472 2.472H20.536L1.02 22.342a2.336 2.336 0 00-.689 1.663c0 .628.245 1.22.69 1.664l13.644 13.644A2.358 2.358 0 0018 39.306l19-19.513V3.609l2.471-2.471a.667.667 0 000-.943zM35.668 19.25L17.05 38.37a1.02 1.02 0 01-1.441 0L1.964 24.727a1.013 1.013 0 01-.299-.72c0-.273.106-.529.301-.724L21.091 4h13.634l-3.222 3.222a3.312 3.312 0 00-1.835-.555A3.337 3.337 0 0026.334 10a3.337 3.337 0 003.334 3.334A3.337 3.337 0 0033 10c0-.678-.206-1.308-.555-1.835l3.222-3.222V19.25zm-4-9.25c0 1.103-.898 2-2 2-1.103 0-2-.897-2-2 0-1.102.897-2 2-2 .308 0 .596.076.856.201l-1.328 1.328a.666.666 0 10.943.943l1.328-1.328c.125.26.2.548.2.856z"/><path d="M26.943 14.088a.666.666 0 10-.943-.943l-.497.498a5.977 5.977 0 00-4.247-1.292 3.93 3.93 0 00-2.741 1.462 4.197 4.197 0 00-.9 3.15l.507 4.06-5.965 5.965a4.67 4.67 0 01.434-6.09.666.666 0 10-.943-.944 6.006 6.006 0 00-.444 7.987l-.76.761a.666.666 0 10.942.943l.762-.762a5.988 5.988 0 004.245 1.293 3.923 3.923 0 002.74-1.461 4.196 4.196 0 00.901-3.15l-.507-4.06 5.965-5.965a4.671 4.671 0 01-.434 6.091.666.666 0 10.942.943 6.008 6.008 0 00.444-7.987l.499-.499zm-8.234 11.643a2.856 2.856 0 01-.612 2.144 2.604 2.604 0 01-1.816.974 4.697 4.697 0 01-3.181-.918l5.23-5.231.38 3.03zm.228-8.933a2.857 2.857 0 01.612-2.144 2.61 2.61 0 011.817-.975 4.674 4.674 0 013.181.918l-5.232 5.231-.378-3.03z"/></g><defs><clipPath id="clip0"><path fill="#fff" d="M0 0h40v40H0z"/></clipPath></defs></svg>
